front/app/assets/icons/icon-pot.svg

<svg fill="none" height="36" viewBox="0 0 28 36" width="28" xmlns="http://www.w3.org/2000/svg"><path d="m22.4375 5.8875v-2.8875c0-.58016-.2305-1.13656-.6407-1.5468-.4102-.41023-.9666-.6407-1.5468-.6407h-12.5c-.58016 0-1.13656.23047-1.5468.6407-.41023.41024-.6407.96664-.6407 1.5468v2.8875c-1.39375.22446-2.66214.93755-3.57823 2.01165-.91608 1.07411-1.420065 2.43915-1.42177 3.85085v17.5c0 1.5747.62556 3.0849 1.73905 4.1984 1.1135 1.1135 2.62373 1.7391 4.19845 1.7391h15c1.5747 0 3.0849-.6256 4.1984-1.7391s1.7391-2.6237 1.7391-4.1984v-17.5c-.0017-1.4117-.5057-2.77674-1.4218-3.85085-.9161-1.0741-2.1845-1.78719-3.5782-2.01165zm-1.875-2.8875v2.8125h-3.125v-3.125h2.8125c.0829 0 .1624.03292.221.09153.0586.0586.0915.13809.0915.22097zm-8.125 2.8125v-3.125h3.125v3.125zm-4.6875-3.125h2.8125v3.125h-3.125v-2.8125c0-.08288.03292-.16237.09153-.22097.0586-.05861.13809-.09153.22097-.09153zm17.8125 26.5625c0 .5335-.1051 1.0618-.3092 1.5547-.2042.4928-.5034.9407-.8807 1.3179-.3772.3773-.8251.6765-1.3179.8807-.4929.2041-1.0212.3092-1.5547.3092h-15c-.53349 0-1.06177-.1051-1.55465-.3092-.49289-.2042-.94073-.5034-1.31797-.8807-.37724-.3772-.67648-.8251-.88064-1.3179-.20416-.4929-.30924-1.0212-.30924-1.5547v-17.5c0-1.0774.42801-2.11075 1.18988-2.87262s1.79518-1.18988 2.87262-1.18988h15c1.0774 0 2.1108.42801 2.8726 1.18988.7619.76187 1.1899 1.79522 1.1899 2.87262zm-6.875-6.25c0 .9117-.3622 1.786-1.0068 2.4307-.6447.6446-1.519 1.0068-2.4307 1.0068h-.3125v1.5625c0 .2486-.0988.4871-.2746.6629s-.4143.2746-.6629.2746-.4871-.0988-.6629-.2746-.2746-.4143-.2746-.6629v-1.5625h-1.5625c-.2486 0-.4871-.0988-.6629-.2746s-.2746-.4143-.2746-.6629.0988-.4871.2746-.6629.4143-.2746.6629-.2746h3.75c.4144 0 .8118-.1646 1.1049-.4576.293-.2931.4576-.6905.4576-1.1049s-.1646-.8118-.4576-1.1049c-.2931-.293-.6905-.4576-1.1049-.4576h-2.5c-.9117 0-1.786-.3622-2.4307-1.0068-.64464-.6447-1.0068-1.519-1.0068-2.4307s.36216-1.786 1.0068-2.4307c.6447-.6446 1.519-1.0068 2.4307-1.0068h.3125v-1.5625c0-.2486.0988-.4871.2746-.6629s.4143-.2746.6629-.2746.4871.0988.6629.2746.2746.4143.2746.6629v1.5625h1.5625c.2486 0 .4871.0988.6629.2746s.2746.4143.2746.6629-.0988.4871-.2746.6629-.4143.2746-.6629.2746h-3.75c-.4144 0-.8118.1646-1.1049.4576-.293.2931-.4576.6905-.4576 1.1049s.1646.8118.4576 1.1049c.2931.293.6905.4576 1.1049.4576h2.5c.9117 0 1.786.3622 2.4307 1.0068.6446.6447 1.0068 1.519 1.0068 2.4307z" /></svg>

<svg width="28" height="36" viewBox="0 0 28 36" fill="none" xmlns="http://www.w3.org/2000/svg">
<g clip-path="url(#clip0_126_223)">
<path d="M22.4375 5.8875V3C22.4375 2.41984 22.207 1.86344 21.7968 1.4532C21.3866 1.04297 20.8302 0.8125 20.25 0.8125H7.75C7.16984 0.8125 6.61344 1.04297 6.2032 1.4532C5.79297 1.86344 5.5625 2.41984 5.5625 3V5.8875C4.16875 6.11196 2.90036 6.82505 1.98427 7.89915C1.06819 8.97326 0.564205 10.3383 0.5625 11.75V29.25C0.5625 30.8247 1.18806 32.3349 2.30155 33.4484C3.41505 34.5619 4.92528 35.1875 6.5 35.1875H21.5C23.0747 35.1875 24.5849 34.5619 25.6984 33.4484C26.8119 32.3349 27.4375 30.8247 27.4375 29.25V11.75C27.4358 10.3383 26.9318 8.97326 26.0157 7.89915C25.0996 6.82505 23.8312 6.11196 22.4375 5.8875ZM20.5625 3V5.8125H17.4375V2.6875H20.25C20.3329 2.6875 20.4124 2.72042 20.471 2.77903C20.5296 2.83763 20.5625 2.91712 20.5625 3ZM12.4375 5.8125V2.6875H15.5625V5.8125H12.4375ZM7.75 2.6875H10.5625V5.8125H7.4375V3C7.4375 2.91712 7.47042 2.83763 7.52903 2.77903C7.58763 2.72042 7.66712 2.6875 7.75 2.6875ZM25.5625 29.25C25.5625 29.7835 25.4574 30.3118 25.2533 30.8047C25.0491 31.2975 24.7499 31.7454 24.3726 32.1226C23.9954 32.4999 23.5475 32.7991 23.0547 33.0033C22.5618 33.2074 22.0335 33.3125 21.5 33.3125H6.5C5.96651 33.3125 5.43823 33.2074 4.94535 33.0033C4.45246 32.7991 4.00462 32.4999 3.62738 32.1226C3.25014 31.7454 2.9509 31.2975 2.74674 30.8047C2.54258 30.3118 2.4375 29.7835 2.4375 29.25V11.75C2.4375 10.6726 2.86551 9.63925 3.62738 8.87738C4.38925 8.11551 5.42256 7.6875 6.5 7.6875H21.5C22.5774 7.6875 23.6108 8.11551 24.3726 8.87738C25.1345 9.63925 25.5625 10.6726 25.5625 11.75V29.25ZM18.6875 23C18.6875 23.9117 18.3253 24.786 17.6807 25.4307C17.036 26.0753 16.1617 26.4375 15.25 26.4375H14.9375V28C14.9375 28.2486 14.8387 28.4871 14.6629 28.6629C14.4871 28.8387 14.2486 28.9375 14 28.9375C13.7514 28.9375 13.5129 28.8387 13.3371 28.6629C13.1613 28.4871 13.0625 28.2486 13.0625 28V26.4375H11.5C11.2514 26.4375 11.0129 26.3387 10.8371 26.1629C10.6613 25.9871 10.5625 25.7486 10.5625 25.5C10.5625 25.2514 10.6613 25.0129 10.8371 24.8371C11.0129 24.6613 11.2514 24.5625 11.5 24.5625H15.25C15.6644 24.5625 16.0618 24.3979 16.3549 24.1049C16.6479 23.8118 16.8125 23.4144 16.8125 23C16.8125 22.5856 16.6479 22.1882 16.3549 21.8951C16.0618 21.6021 15.6644 21.4375 15.25 21.4375H12.75C11.8383 21.4375 10.964 21.0753 10.3193 20.4307C9.67466 19.786 9.3125 18.9117 9.3125 18C9.3125 17.0883 9.67466 16.214 10.3193 15.5693C10.964 14.9247 11.8383 14.5625 12.75 14.5625H13.0625V13C13.0625 12.7514 13.1613 12.5129 13.3371 12.3371C13.5129 12.1613 13.7514 12.0625 14 12.0625C14.2486 12.0625 14.4871 12.1613 14.6629 12.3371C14.8387 12.5129 14.9375 12.7514 14.9375 13V14.5625H16.5C16.7486 14.5625 16.9871 14.6613 17.1629 14.8371C17.3387 15.0129 17.4375 15.2514 17.4375 15.5C17.4375 15.7486 17.3387 15.9871 17.1629 16.1629C16.9871 16.3387 16.7486 16.4375 16.5 16.4375H12.75C12.3356 16.4375 11.9382 16.6021 11.6451 16.8951C11.3521 17.1882 11.1875 17.5856 11.1875 18C11.1875 18.4144 11.3521 18.8118 11.6451 19.1049C11.9382 19.3979 12.3356 19.5625 12.75 19.5625H15.25C16.1617 19.5625 17.036 19.9247 17.6807 20.5693C18.3253 21.214 18.6875 22.0883 18.6875 23Z" fill="#277C78"/>
</g>
<defs>
<clipPath id="clip0_126_223">
<rect width="28" height="36" fill="white"/>
</clipPath>
</defs>
</svg>
